icons/midnadark/actions/24/document-new-from-template.svg

<svg xmlns="http://www.w3.org/2000/svg" viewBox="0 0 22 22"><defs><clipPath><rect width="32" height="32" x="8" y="8" fill="none" rx="16"/></clipPath><clipPath><rect width="32" height="32" x="392.57" y="507.8" fill="none" rx="16"/></clipPath><clipPath><rect y="507.8" x="392.57" height="32" width="32" fill="none" rx="16"/></clipPath><clipPath><rect width="32" height="32" x="392.57" y="507.8" fill="none" rx="16"/></clipPath><clipPath><rect width="32" height="32" x="392.57" y="507.8" fill="none" rx="16"/></clipPath><clipPath><rect y="507.8" x="392.57" height="32" width="32" fill="none" rx="16"/></clipPath><clipPath><rect y="8" x="8" height="32" width="32" fill="none" rx="16"/></clipPath><clipPath><rect y="507.8" x="392.57" height="32" width="32" fill="none" rx="16"/></clipPath><clipPath><rect width="32" height="32" x="392.57" y="507.8" fill="none" rx="16"/></clipPath><clipPath><rect width="32" height="32" x="392.57" y="507.8" fill="none" rx="16"/></clipPath><clipPath><rect width="32" height="32" x="8" y="8" fill="none" rx="16"/></clipPath><clipPath><path d="m0 706.47h1490.93v-706.47h-1490.93v706.47"/></clipPath><clipPath><path d="m22.2 686.12h1447.73v-667.19h-1447.73v667.19"/></clipPath><clipPath><rect width="32" height="32" x="392.57" y="507.8" fill="none" rx="16"/></clipPath><clipPath><rect width="32" height="32" x="392.57" y="507.8" fill="none" rx="16"/></clipPath><clipPath><rect width="32" height="32" x="392.57" y="507.8" fill="none" rx="16"/></clipPath><clipPath><rect width="32" height="32" x="392.57" y="507.8" fill="none" rx="16"/></clipPath><clipPath><rect width="32" height="32" x="8" y="8" fill="none" rx="16"/></clipPath></defs><path d="m123.78 73.993l-11.242-10.999 11.242-10.999c1.63-1.521 2.173-3.422 1.63-5.703-.651-2.227-2.063-3.612-4.237-4.155l-15.316-3.911 4.318-15.15c.651-2.226.137-4.128-1.549-5.703-1.574-1.684-3.475-2.2-5.703-1.548l-15.15 4.318-3.912-15.317c-.543-2.227-1.926-3.612-4.153-4.155-2.228-.598-4.129-.081-5.703 1.548l-11 11.325-10.999-11.325c-1.575-1.684-3.476-2.2-5.703-1.548-2.227.543-3.612 1.928-4.155 4.155l-3.911 15.317-15.15-4.318c-2.227-.652-4.128-.136-5.703 1.548-1.684 1.575-2.2 3.476-1.548 5.703l4.318 15.15-15.317 3.911c-2.172.543-3.585 1.928-4.236 4.155-.544 2.281 0 4.182 1.629 5.703l11.243 10.999-11.243 10.999c-1.629 1.521-2.172 3.422-1.629 5.703.651 2.227 2.064 3.612 4.236 4.155l15.317 3.91-4.318 15.15c-.652 2.227-.136 4.127 1.548 5.703 1.575 1.684 3.476 2.199 5.703 1.548l15.15-4.317 3.911 15.316c.543 2.227 1.928 3.639 4.155 4.236 2.281.543 4.182 0 5.703-1.629l10.999-11.243 11 11.244c1.086 1.193 2.471 1.791 4.154 1.791.381 0 .896-.055 1.549-.162 2.227-.652 3.611-2.064 4.154-4.236l3.91-15.316 15.15 4.317c2.228.651 4.129.136 5.703-1.548 1.685-1.576 2.2-3.477 1.549-5.703l-4.317-15.15 15.315-3.91c2.175-.543 3.586-1.928 4.237-4.155.544-2.282.0001-4.183-1.63-5.704" fill="#fff" transform="matrix(.12778 0 0 .12778 2.947 2.951)"/></svg>

<?xml version="1.0" encoding="UTF-8" standalone="no"?>
<!-- Created with Inkscape (http://www.inkscape.org/) -->

<svg
   xmlns:sketch="http://www.bohemiancoding.com/sketch/ns"
   xmlns:osb="http://www.openswatchbook.org/uri/2009/osb"
   xmlns:dc="http://purl.org/dc/elements/1.1/"
   xmlns:cc="http://creativecommons.org/ns#"
   xmlns:rdf="http://www.w3.org/1999/02/22-rdf-syntax-ns#"
   xmlns:svg="http://www.w3.org/2000/svg"
   xmlns="http://www.w3.org/2000/svg"
   xmlns:sodipodi="http://sodipodi.sourceforge.net/DTD/sodipodi-0.dtd"
   xmlns:inkscape="http://www.inkscape.org/namespaces/inkscape"
   width="22"
   height="22"
   id="svg3760"
   version="1.1"
   inkscape:version="0.91 r13725"
   sodipodi:docname="document-new-from-template.svg">
  <defs
     id="defs3762">
    <inkscape:perspective
       id="perspective4146"
       inkscape:persp3d-origin="12 : 8 : 1"
       inkscape:vp_z="24 : 12 : 1"
       inkscape:vp_y="0 : 1000 : 0"
       inkscape:vp_x="0 : 12 : 1"
       sodipodi:type="inkscape:persp3d" />
    <inkscape:perspective
       id="perspective4090"
       inkscape:persp3d-origin="12 : 8 : 1"
       inkscape:vp_z="24 : 12 : 1"
       inkscape:vp_y="0 : 1000 : 0"
       inkscape:vp_x="0 : 12 : 1"
       sodipodi:type="inkscape:persp3d" />
    <clipPath
       id="clipPath16"
       clipPathUnits="userSpaceOnUse">
      <path
         id="path18"
         d="m 0,706.465 1490.926,0 L 1490.926,0 0,0 0,706.465 Z"
         inkscape:connector-curvature="0" />
    </clipPath>
    <clipPath
       id="clipPath24"
       clipPathUnits="userSpaceOnUse">
      <path
         id="path26"
         d="m 22.1953,686.117 1447.7347,0 0,-667.1902 -1447.7347,0 0,667.1902 z"
         inkscape:connector-curvature="0" />
    </clipPath>
    <clipPath
       id="clipPath4534"
       clipPathUnits="userSpaceOnUse">
      <rect
         style="fill:url(#linearGradient4538);fill-opacity:1;stroke:none"
         id="rect4536"
         width="31.999989"
         height="31.999971"
         x="8.0000114"
         y="8.0000038"
         ry="15.999986" />
    </clipPath>
    <clipPath
       id="clipPath4584"
       clipPathUnits="userSpaceOnUse">
      <rect
         style="fill:url(#linearGradient4588);fill-opacity:1;stroke:none"
         id="rect4586"
         width="31.999989"
         height="31.999971"
         x="392.57144"
         y="507.798"
         ry="15.999986" />
    </clipPath>
    <clipPath
       id="clipPath4550"
       clipPathUnits="userSpaceOnUse">
      <rect
         style="fill:url(#linearGradient4554);fill-opacity:1;stroke:none"
         id="rect4552"
         width="31.999989"
         height="31.999971"
         x="392.57144"
         y="507.798"
         ry="15.999986" />
    </clipPath>
    <clipPath
       id="clipPath4568"
       clipPathUnits="userSpaceOnUse">
      <rect
         style="fill:url(#linearGradient4572);fill-opacity:1;stroke:none"
         id="rect4570"
         width="31.999989"
         height="31.999971"
         x="392.57144"
         y="507.798"
         ry="15.999986" />
    </clipPath>
    <clipPath
       id="clipPath4528"
       clipPathUnits="userSpaceOnUse">
      <rect
         style="fill:url(#linearGradient4532);fill-opacity:1;stroke:none"
         id="rect4530"
         width="31.999989"
         height="31.999971"
         x="8.0000114"
         y="8.0000038"
         ry="15.999986" />
    </clipPath>
    <clipPath
       id="clipPath4578"
       clipPathUnits="userSpaceOnUse">
      <rect
         style="fill:url(#linearGradient4582);fill-opacity:1;stroke:none"
         id="rect4580"
         width="31.999989"
         height="31.999971"
         x="392.57144"
         y="507.798"
         ry="15.999986" />
    </clipPath>
    <clipPath
       id="clipPath4562"
       clipPathUnits="userSpaceOnUse">
      <rect
         style="fill:url(#linearGradient4566);fill-opacity:1;stroke:none"
         id="rect4564"
         width="31.999989"
         height="31.999971"
         x="392.57144"
         y="507.798"
         ry="15.999986" />
    </clipPath>
    <clipPath
       id="clipPath4544"
       clipPathUnits="userSpaceOnUse">
      <rect
         style="fill:url(#linearGradient4548);fill-opacity:1;stroke:none"
         id="rect4546"
         width="31.999989"
         height="31.999971"
         x="392.57144"
         y="507.798"
         ry="15.999986" />
    </clipPath>
    <clipPath
       id="clipPath4390"
       clipPathUnits="userSpaceOnUse">
      <rect
         style="fill:url(#linearGradient4532);fill-opacity:1;stroke:none"
         id="rect4392"
         width="31.999989"
         height="31.999971"
         x="8.0000114"
         y="8.0000038"
         ry="15.999986" />
    </clipPath>
    <clipPath
       id="clipPath4407"
       clipPathUnits="userSpaceOnUse">
      <rect
         style="fill:url(#linearGradient4582);fill-opacity:1;stroke:none"
         id="rect4409"
         width="31.999989"
         height="31.999971"
         x="392.57144"
         y="507.798"
         ry="15.999986" />
    </clipPath>
    <clipPath
       id="clipPath4424"
       clipPathUnits="userSpaceOnUse">
      <rect
         style="fill:url(#linearGradient4566);fill-opacity:1;stroke:none"
         id="rect4426"
         width="31.999989"
         height="31.999971"
         x="392.57144"
         y="507.798"
         ry="15.999986" />
    </clipPath>
    <clipPath
       id="clipPath4441"
       clipPathUnits="userSpaceOnUse">
      <rect
         style="fill:url(#linearGradient4548);fill-opacity:1;stroke:none"
         id="rect4443"
         width="31.999989"
         height="31.999971"
         x="392.57144"
         y="507.798"
         ry="15.999986" />
    </clipPath>
    <clipPath
       clipPathUnits="userSpaceOnUse"
       id="clipPath4528-1">
      <rect
         ry="15.999986"
         y="8.0000038"
         x="8.0000114"
         height="31.999971"
         width="31.999989"
         id="rect4530-7"
         style="fill:url(#linearGradient4532);fill-opacity:1;stroke:none" />
    </clipPath>
    <clipPath
       clipPathUnits="userSpaceOnUse"
       id="clipPath4578-8">
      <rect
         ry="15.999986"
         y="507.798"
         x="392.57144"
         height="31.999971"
         width="31.999989"
         id="rect4580-7"
         style="fill:url(#linearGradient4582);fill-opacity:1;stroke:none" />
    </clipPath>
    <clipPath
       clipPathUnits="userSpaceOnUse"
       id="clipPath4562-8">
      <rect
         ry="15.999986"
         y="507.798"
         x="392.57144"
         height="31.999971"
         width="31.999989"
         id="rect4564-8"
         style="fill:url(#linearGradient4566);fill-opacity:1;stroke:none" />
    </clipPath>
    <clipPath
       clipPathUnits="userSpaceOnUse"
       id="clipPath4544-1">
      <rect
         ry="15.999986"
         y="507.798"
         x="392.57144"
         height="31.999971"
         width="31.999989"
         id="rect4546-1"
         style="fill:url(#linearGradient4548);fill-opacity:1;stroke:none" />
    </clipPath>
    <linearGradient
       id="linearGradient4207"
       osb:paint="gradient">
      <stop
         style="stop-color:#3498db;stop-opacity:1;"
         offset="0"
         id="stop3371" />
      <stop
         style="stop-color:#3498db;stop-opacity:0;"
         offset="1"
         id="stop3373" />
    </linearGradient>
  </defs>
  <sodipodi:namedview
     id="base"
     pagecolor="#ffffff"
     bordercolor="#666666"
     borderopacity="1.0"
     inkscape:pageopacity="0.0"
     inkscape:pageshadow="2"
     inkscape:zoom="11.989654"
     inkscape:cx="-24.316732"
     inkscape:cy="10.578121"
     inkscape:document-units="px"
     inkscape:current-layer="layer1"
     showgrid="true"
     fit-margin-top="0"
     fit-margin-left="0"
     fit-margin-right="0"
     fit-margin-bottom="0"
     inkscape:window-width="1366"
     inkscape:window-height="633"
     inkscape:window-x="0"
     inkscape:window-y="33"
     inkscape:window-maximized="1"
     inkscape:showpageshadow="false"
     inkscape:snap-bbox="true"
     inkscape:object-nodes="true">
    <sodipodi:guide
       position="4.1796875e-06,21.999997"
       orientation="22,0"
       id="guide4116" />
    <sodipodi:guide
       position="4.1796875e-06,-2.6953124e-06"
       orientation="0,22"
       id="guide4118" />
    <sodipodi:guide
       position="22.000004,-2.6953124e-06"
       orientation="-22,0"
       id="guide4120" />
    <sodipodi:guide
       position="22.000004,21.999997"
       orientation="0,-22"
       id="guide4122" />
    <sodipodi:guide
       position="2.0000042,19.999997"
       orientation="18,0"
       id="guide4124" />
    <sodipodi:guide
       position="20.000004,1.9999973"
       orientation="-18,0"
       id="guide4128" />
    <sodipodi:guide
       position="20.000004,19.999997"
       orientation="0,-18"
       id="guide4130" />
    <sodipodi:guide
       position="3.0000042,18.999997"
       orientation="16,0"
       id="guide4132" />
    <sodipodi:guide
       position="3.0000042,2.9999973"
       orientation="0,16"
       id="guide4134" />
    <sodipodi:guide
       position="19.000004,2.9999973"
       orientation="-16,0"
       id="guide4136" />
    <sodipodi:guide
       position="19.000004,18.999997"
       orientation="0,-16"
       id="guide4138" />
    <inkscape:grid
       type="xygrid"
       id="grid4140" />
  </sodipodi:namedview>
  <metadata
     id="metadata3765">
    <rdf:RDF>
      <cc:Work
         rdf:about="">
        <dc:format>image/svg+xml</dc:format>
        <dc:type
           rdf:resource="http://purl.org/dc/dcmitype/StillImage" />
        <dc:title />
      </cc:Work>
    </rdf:RDF>
  </metadata>
  <g
     inkscape:label="Capa 1"
     inkscape:groupmode="layer"
     id="layer1"
     transform="translate(-553.72253,-583.11926)">
    <g
       transform="matrix(1.6001614,0,0,1.6001614,-76.256403,-257.32262)"
       id="layer1-0"
       inkscape:label="Capa 1"
       style="fill:#ffffff;fill-opacity:1">
      <g
         transform="translate(27.682101,0.12839698)"
         id="g4369-1"
         style="fill:#ffffff;fill-opacity:1">
        <g
           transform="translate(22.659906,-5.9301729)"
           id="g4382-1-1"
           style="fill:#ffffff;fill-opacity:1" />
        <g
           transform="matrix(0.97603016,0,0,-0.97603016,8.9380976,1042.0695)"
           id="g4486-5-3"
           style="fill:#ffffff;fill-opacity:1">
          <g
             transform="translate(0,2.1929912e-5)"
             id="g4830-1"
             style="fill:#ffffff;fill-opacity:1">
            <g
               transform="matrix(1.0245585,0,0,-1.0245585,-9.1576049,1067.6612)"
               id="g4303-1"
               style="fill:#ffffff;fill-opacity:1">
              <g
                 transform="matrix(1.5,0,0,1.5,360.88933,-1034.8737)"
                 id="layer1-28-2"
                 inkscape:label="Capa 1"
                 style="fill:#ffffff;fill-opacity:1">
                <g
                   inkscape:label="Capa 1"
                   id="layer1-4-4"
                   transform="translate(-412.88298,512.00351)"
                   style="fill:#ffffff;fill-opacity:1">
                  <g
                     transform="translate(392.57143,-514.5642)"
                     id="layer1-7-5"
                     inkscape:label="Capa 1"
                     style="fill:#ffffff;fill-opacity:1" />
                  <g
                     id="g4240-26"
                     transform="translate(341.79698,500.25245)"
                     style="fill:#ffffff;fill-opacity:1">
                    <g
                       inkscape:transform-center-y="-9.4924686"
                       inkscape:transform-center-x="5.4653607"
                       inkscape:label="Capa 1"
                       id="layer1-1"
                       transform="translate(-392.98822,-511.27795)"
                       style="fill:#ffffff;fill-opacity:1">
                      <g
                         inkscape:label="Capa 1"
                         id="layer1-15-2"
                         transform="matrix(1.3333333,0,0,1.3333333,-61.890355,-165.99713)"
                         style="fill:#ffffff;fill-opacity:1">
                        <g
                           transform="translate(392.57143,-514.5642)"
                           id="layer1-7-8-7"
                           inkscape:label="Capa 1"
                           style="fill:#ffffff;fill-opacity:1" />
                        <g
                           id="g4240-4-9"
                           transform="translate(341.79698,500.25245)"
                           style="fill:#ffffff;fill-opacity:1">
                          <g
                             inkscape:transform-center-y="-9.4924686"
                             inkscape:transform-center-x="5.4653607"
                             inkscape:label="Capa 1"
                             id="layer1-1-5-4"
                             transform="translate(-392.98822,-511.27795)"
                             style="fill:#ffffff;fill-opacity:1">
                            <g
                               id="layer1-3-8-4"
                               inkscape:label="Capa 1"
                               transform="translate(0.41988239,0.03484499)"
                               style="stroke:#1f2a47;stroke-opacity:1;fill:#ffffff;fill-opacity:1">
                              <g
                                 transform="translate(440.36158,509.62534)"
                                 id="g4186-4"
                                 style="fill:#ffffff;fill-opacity:1">
                                <g
                                   style="stroke:#1f2a47;stroke-opacity:1;fill:#ffffff;fill-opacity:1"
                                   transform="matrix(0.52109202,0,0,0.52109202,-0.76995909,19.353185)"
                                   id="g4186-3-3">
                                <g
                                   transform="translate(-400.50475,-509.14629)"
                                   inkscape:label="Capa 1"
                                   id="layer1-3-6-5"
                                   style="fill:#ffffff;fill-opacity:1">
                                <g
                                   inkscape:label="Capa 1"
                                   id="layer1-2-4"
                                   transform="matrix(1.0037077,0,0,1.0037077,11.267145,17.846026)"
                                   style="fill:#ffffff;fill-opacity:1">
                                <g
                                   transform="matrix(1.5263052,0,0,1.5263052,376.49864,-1040.1735)"
                                   id="g4414-9-9"
                                   style="fill:#ffffff;fill-opacity:1">
                                <g
                                   id="g4180-3"
                                   transform="matrix(1.1526351,0,0,1.1526351,-4.8344134,-156.43331)"
                                   style="fill:#ffffff;fill-opacity:1">
                                <g
                                   transform="matrix(0.56841663,0,0,0.56841663,10.426663,1005.5718)"
                                   id="g4186-6-0"
                                   style="fill:#ffffff;fill-opacity:1" />
                                <g
                                   id="g4280-0"
                                   style="fill:#ffffff;fill-opacity:1">
                                <g
                                   inkscape:label="Capa 1"
                                   id="layer1-43-6"
                                   transform="matrix(0.81509151,0,0,0.81509151,-323.19965,584.90903)"
                                   style="fill:#ffffff;fill-opacity:1">
                                <g
                                   transform="translate(392.57143,-514.5642)"
                                   id="layer1-7-3-2"
                                   inkscape:label="Capa 1"
                                   style="fill:#ffffff;fill-opacity:1" />
                                <g
                                   id="g4240-2-7"
                                   transform="translate(341.79698,500.25245)"
                                   style="fill:#ffffff;fill-opacity:1">
                                <g
                                   inkscape:transform-center-y="-9.4924686"
                                   inkscape:transform-center-x="5.4653607"
                                   inkscape:label="Capa 1"
                                   id="layer1-1-56-7"
                                   transform="translate(-392.98822,-511.27795)"
                                   style="fill:#ffffff;fill-opacity:1">
                                <g
                                   id="layer1-3-1"
                                   inkscape:label="Capa 1"
                                   transform="translate(0.41988239,0.03484499)"
                                   style="stroke:#1f2a47;stroke-opacity:1;fill:#ffffff;fill-opacity:1">
                                <g
                                   transform="translate(440.36158,509.62534)"
                                   id="g4186-1-6"
                                   style="fill:#ffffff;fill-opacity:1">
                                <g
                                   style="stroke:#1f2a47;stroke-opacity:1;fill:#ffffff;fill-opacity:1"
                                   transform="matrix(0.52109202,0,0,0.52109202,-0.76995909,19.353185)"
                                   id="g4186-3-9-5">
                                <g
                                   transform="translate(-400.50475,-509.14629)"
                                   inkscape:label="Capa 1"
                                   id="layer1-3-6-6-4"
                                   style="fill:#ffffff;fill-opacity:1">
                                <g
                                   style="stroke:none;fill:#ffffff;fill-opacity:1"
                                   id="g4162-0"
                                   transform="matrix(0.76761933,0,0,0.76761933,156.46876,138.50552)">
                                <g
                                   style="fill:#ffffff;fill-opacity:1;stroke:none"
                                   id="layer1-7-4-3-8"
                                   inkscape:label="Capa 1"
                                   transform="translate(-0.71741557,0.01714041)" />
                                <g
                                   id="g4241-7"
                                   style="fill:#ffffff;fill-opacity:1" />
                                </g>
                                </g>
                                </g>
                                </g>
                                </g>
                                </g>
                                </g>
                                </g>
                                </g>
                                </g>
                                </g>
                                </g>
                                </g>
                                </g>
                              </g>
                            </g>
                          </g>
                        </g>
                      </g>
                    </g>
                  </g>
                </g>
              </g>
            </g>
            <g
               style="fill:#ffffff;fill-opacity:1;stroke:none"
               transform="matrix(0.08181857,0,0,-0.08181857,367.73479,527.78219)"
               sketch:type="MSLayerGroup"
               id="certificate6">
              <path
                 style="fill:#ffffff;fill-opacity:1;stroke:none"
                 d="M 123.777,73.993 112.535,62.994 123.777,51.995 c 1.63,-1.521 2.173,-3.422 1.63,-5.703 -0.651,-2.227 -2.063,-3.612 -4.237,-4.155 l -15.316,-3.911 4.318,-15.154 c 0.651,-2.226 0.137,-4.128 -1.549,-5.703 -1.574,-1.684 -3.475,-2.2 -5.703,-1.548 L 87.768,20.139 83.856,4.822 C 83.313,2.595 81.93,1.21 79.703,0.667 77.475,0.069 75.574,0.586 74,2.215 L 63,13.54 52.001,2.215 C 50.426,0.531 48.525,0.015 46.298,0.667 44.071,1.21 42.686,2.595 42.143,4.822 L 38.232,20.139 23.078,15.821 c -2.227,-0.652 -4.128,-0.136 -5.703,1.548 -1.684,1.575 -2.2,3.476 -1.548,5.703 l 4.318,15.154 -15.317,3.911 c -2.172,0.543 -3.585,1.928 -4.236,4.155 -0.544,2.281 0,4.182 1.629,5.703 L 13.464,62.994 2.221,73.993 c -1.629,1.521 -2.172,3.422 -1.629,5.703 0.651,2.227 2.064,3.612 4.236,4.155 l 15.317,3.91 -4.318,15.154 c -0.652,2.227 -0.136,4.127 1.548,5.703 1.575,1.684 3.476,2.199 5.703,1.548 l 15.154,-4.317 3.911,15.316 c 0.543,2.227 1.928,3.639 4.155,4.236 2.281,0.543 4.182,0 5.703,-1.629 L 63,112.529 74,123.773 c 1.086,1.193 2.471,1.791 4.154,1.791 0.381,0 0.896,-0.055 1.549,-0.162 2.227,-0.652 3.611,-2.064 4.154,-4.236 l 3.91,-15.316 15.153,4.317 c 2.228,0.651 4.129,0.136 5.703,-1.548 1.685,-1.576 2.2,-3.477 1.549,-5.703 l -4.317,-15.154 15.315,-3.91 c 2.175,-0.543 3.586,-1.928 4.237,-4.155 0.544,-2.282 0.001,-4.183 -1.63,-5.704 l 0,0 z"
                 id="path4226"
                 inkscape:connector-curvature="0" />
            </g>
          </g>
          <g
             style="fill:#ffffff;fill-opacity:1;stroke:none"
             inkscape:label="Capa 1"
             id="layer1-6-1"
             transform="matrix(0.63644685,0,0,-0.63644685,365.84707,1180.0248)" />
        </g>
      </g>
    </g>
  </g>
</svg>
